src/icons/service-ogz.svg

<svg enable-background="new 0 0 12 14" viewBox="0 0 12 14" xmlns="http://www.w3.org/2000/svg"><g><path d="m6.2.3c.4.2.8.4 1.2.7.8.4 1.6.9 2.3 1.4.6.3 1.2.7 1.8 1 .2.1.4.4.4.6v6c0 .3-.1.5-.4.6-.7.4-1.5.9-2.2 1.3s-1.5.9-2.2 1.3c-.2.1-.5.3-.7.4-.3.1-.5.1-.8 0-.7-.4-1.4-.8-2.1-1.2-.8-.5-1.6-.9-2.4-1.4-.3-.2-.5-.3-.8-.5-.2-.1-.3-.3-.3-.5 0-1.1 0-2.1 0-3.2 0-.1 0-.1.1 0 1.2.7 2.4 1.4 3.7 2.1.6.3 1.2.7 1.8 1h.1c0-.9 0-1.7 0-2.6 0-.1 0-.1-.1-.1-.5-.4-1.1-.7-1.6-1-.6-.4-1.3-.8-1.9-1.1-.7-.4-1.3-.8-2-1.2.1-.2.2-.4.4-.5.7-.4 1.3-.8 2-1.2l1.5-.9c.6-.3 1.1-.6 1.7-1 .1 0 .1 0 .2-.1.1.1.2.1.3.1z" fill="#71b9d9"/><g fill="#fefefe"><path d="m.6 7.6c.3.2.6.4.9.5.7.4 1.4.8 2.1 1.2s1.4.8 2.1 1.2c.2.1.4.1.6 0 .9-.5 1.7-1 2.5-1.4.2-.1.3-.1.3-.3.1-.1.1-.2.1-.3 0-1 0-2.1 0-3.1 0-.2-.1-.3-.2-.4-.8-.4-1.5-.9-2.3-1.3-.2-.1-.3-.2-.4-.3-.2-.1-.3-.1-.5 0-.9.5-1.8 1.1-2.7 1.6h-.1c-.7-.4-1.4-.8-2.1-1.2.1-.1.3-.2.4-.3 1-.6 2-1.2 3-1.8.5-.3 1.1-.6 1.6-.9h.2c1.1.6 2.1 1.2 3.2 1.9.6.4 1.3.7 1.9 1.1.1.1.1.1.1.2v3 2.9c0 .1 0 .2-.1.2-1.2.7-2.3 1.3-3.5 2-.5.3-1.1.6-1.6.9-.1 0-.2 0-.2 0-.5-.3-1.1-.6-1.6-.9-.8-.5-1.6-.9-2.3-1.4-.4-.2-.8-.4-1.2-.7-.1 0-.1-.1-.1-.2-.1-.6-.1-1.3-.1-2.2 0 .1 0 .1 0 0z"/><path d="m3.6 5.3c.3-.2.5-.3.8-.5.5-.3 1-.6 1.5-.9h.1c.8.4 1.6.9 2.3 1.3-.1.2-.2.3-.4.4-.6.4-1.3.7-1.9 1.1h-.1c-.7-.4-1.4-.9-2.1-1.3-.1 0-.1 0-.2-.1z"/><path d="m8.7 5.8v2.7c0 .1 0 .1-.1.1-.7.4-1.5.8-2.3 1.3-.1 0-.1 0-.1 0 0-.9 0-1.8 0-2.6 0 0 0-.1.1-.1.8-.5 1.6-.9 2.4-1.4-.1 0 0 0 0 0z"/></g></g></svg>

<?xml version="1.0" encoding="utf-8"?>
<!-- Generator: Adobe Illustrator 20.1.0, SVG Export Plug-In . SVG Version: 6.00 Build 0)  -->
<svg version="1.1" id="Layer_1" xmlns="http://www.w3.org/2000/svg" xmlns:xlink="http://www.w3.org/1999/xlink" x="0px" y="0px"
	 viewBox="0 0 12 14" style="enable-background:new 0 0 12 14;" xml:space="preserve">
<style type="text/css">
	.st0{fill:#71B9D9;}
	.st1{fill:#FEFEFE;}
</style>
<title>HDL/Icon/Standard/Service/logz</title>
<desc>Created with Sketch.</desc>
<g id="Colors">
	<g id="Service-icons" transform="translate(-120.000000, -1158.000000)">
		<g id="Logz_1_" transform="translate(101.000000, 1141.000000)">
			<g id="HDL_x2F_Icon_x2F_Standard_x2F_Service_x2F_logz" transform="translate(19.000000, 17.000000)">
				<g id="Logz">
					<path id="Path" class="st0" d="M6.2,0.3C6.6,0.5,7,0.7,7.4,1C8.2,1.4,9,1.9,9.7,2.4c0.6,0.3,1.2,0.7,1.8,1
						c0.2,0.1,0.4,0.4,0.4,0.6v6c0,0.3-0.1,0.5-0.4,0.6c-0.7,0.4-1.5,0.9-2.2,1.3c-0.7,0.4-1.5,0.9-2.2,1.3
						c-0.2,0.1-0.5,0.3-0.7,0.4c-0.3,0.1-0.5,0.1-0.8,0c-0.7-0.4-1.4-0.8-2.1-1.2c-0.8-0.5-1.6-0.9-2.4-1.4
						c-0.3-0.2-0.5-0.3-0.8-0.5C0.1,10.4,0,10.2,0,10c0-1.1,0-2.1,0-3.2c0-0.1,0-0.1,0.1,0c1.2,0.7,2.4,1.4,3.7,2.1
						c0.6,0.3,1.2,0.7,1.8,1h0.1c0-0.9,0-1.7,0-2.6c0-0.1,0-0.1-0.1-0.1C5.1,6.8,4.5,6.5,4,6.2C3.4,5.8,2.7,5.4,2.1,5.1
						c-0.7-0.4-1.3-0.8-2-1.2c0.1-0.2,0.2-0.4,0.4-0.5c0.7-0.4,1.3-0.8,2-1.2C3,1.9,3.5,1.6,4,1.3c0.6-0.3,1.1-0.6,1.7-1
						c0.1,0,0.1,0,0.2-0.1C6,0.3,6.1,0.3,6.2,0.3L6.2,0.3z"/>
					<g id="Group">
						<path id="Path_1_" class="st1" d="M0.6,7.6C0.9,7.8,1.2,8,1.5,8.1c0.7,0.4,1.4,0.8,2.1,1.2c0.7,0.4,1.4,0.8,2.1,1.2
							c0.2,0.1,0.4,0.1,0.6,0C7.2,10,8,9.5,8.8,9.1C9,9,9.1,9,9.1,8.8c0.1-0.1,0.1-0.2,0.1-0.3c0-1,0-2.1,0-3.1C9.2,5.2,9.1,5.1,9,5
							C8.2,4.6,7.5,4.1,6.7,3.7C6.5,3.6,6.4,3.5,6.3,3.4C6.1,3.3,6,3.3,5.8,3.4C4.9,3.9,4,4.5,3.1,5H3C2.3,4.6,1.6,4.2,0.9,3.8
							C1,3.7,1.2,3.6,1.3,3.5c1-0.6,2-1.2,3-1.8c0.5-0.3,1.1-0.6,1.6-0.9h0.2C7.2,1.4,8.2,2,9.3,2.7c0.6,0.4,1.3,0.7,1.9,1.1
							c0.1,0.1,0.1,0.1,0.1,0.2v3v2.9c0,0.1,0,0.2-0.1,0.2c-1.2,0.7-2.3,1.3-3.5,2c-0.5,0.3-1.1,0.6-1.6,0.9c-0.1,0-0.2,0-0.2,0
							c-0.5-0.3-1.1-0.6-1.6-0.9c-0.8-0.5-1.6-0.9-2.3-1.4c-0.4-0.2-0.8-0.4-1.2-0.7c-0.1,0-0.1-0.1-0.1-0.2
							C0.6,9.2,0.6,8.5,0.6,7.6C0.6,7.7,0.6,7.7,0.6,7.6L0.6,7.6z"/>
						<path id="Path_2_" class="st1" d="M3.6,5.3C3.9,5.1,4.1,5,4.4,4.8c0.5-0.3,1-0.6,1.5-0.9H6c0.8,0.4,1.6,0.9,2.3,1.3
							C8.2,5.4,8.1,5.5,7.9,5.6C7.3,6,6.6,6.3,6,6.7H5.9C5.2,6.3,4.5,5.8,3.8,5.4C3.7,5.4,3.7,5.4,3.6,5.3L3.6,5.3z"/>
						<path id="Path_3_" class="st1" d="M8.7,5.8v2.7c0,0.1,0,0.1-0.1,0.1C7.9,9,7.1,9.4,6.3,9.9c-0.1,0-0.1,0-0.1,0
							c0-0.9,0-1.8,0-2.6c0,0,0-0.1,0.1-0.1C7.1,6.7,7.9,6.3,8.7,5.8C8.6,5.8,8.7,5.8,8.7,5.8z"/>
					</g>
				</g>
			</g>
		</g>
	</g>
</g>
</svg>
